logo.svg

<svg height="28" viewBox="0 0 58 28" width="58" xmlns="http://www.w3.org/2000/svg" xmlns:xlink="http://www.w3.org/1999/xlink"><mask id="a" fill="#fff"><path d="m.06.297h57.195v27.218h-57.195z" fill="none"/></mask><g fill="none" fill-rule="evenodd"><g fill="#6a6a67"><path d="m45.252 24.03c-.757 0-1.371-.613-1.371-1.371v-7.995h-.016v-3.235h.016v-6.527c0-.758.614-1.371 1.371-1.371h10.248c.756 0 1.37-.613 1.37-1.371v-.492c0-.757-.614-1.371-1.37-1.371h-12.262c-1.559 0-2.823 1.263-2.823 2.823v20.958c0 1.76 1.427 3.187 3.187 3.187h12.282c.757 0 1.371-.615 1.371-1.372v-.492c0-.758-.614-1.371-1.371-1.371z" mask="url(#a)"/><path d="m11.879 16.207c-.461-.638-.28-1.553.412-1.929 2.327-1.265 3.661-3.62 3.661-6.626 0-2.855-2.335-7.105-8.767-7.105h-5.853c-.736 0-1.332.597-1.332 1.332v.578c0 .738.6 1.336 1.337 1.333l2.131-.009h3.91c3.766 0 5.108 2.04 5.108 3.95 0 1.977-.785 4.334-4.527 4.334h-4.491v-.008h-2.136c-.736 0-1.332.596-1.332 1.332v12.794c0 .735.596 1.332 1.332 1.332h.804c.736 0 1.332-.597 1.332-1.332v-9.551c0-.736.597-1.332 1.332-1.332h1.488c.428 0 .83.206 1.081.552l8.014 11.11c.25.347.652.553 1.08.553h.992c1.087 0 1.716-1.233 1.079-2.114z" mask="url(#a)"/><path d="m33.285 19.78c-.201 1.005-.58 1.831-1.126 2.458-.404.579-.969 1.072-1.664 1.444-.724.433-1.601.656-2.596.656-.984 0-1.844-.223-2.555-.664-.7-.361-1.29-.852-1.734-1.451-.534-.612-.901-1.44-1.078-2.446-.197-.982-.293-2.807-.293-5.575s.096-4.604.294-5.618c.176-.976.543-1.79 1.09-2.418.43-.582 1.017-1.085 1.732-1.481.709-.384 1.562-.593 2.538-.62.999.027 1.87.235 2.601.619.7.4 1.263.905 1.681 1.503.53.606.908 1.418 1.109 2.396.184 1.003.277 2.892.277 5.619 0 2.766-.091 4.59-.276 5.578zm-.284-17.869c-1.348-.976-3.062-1.483-5.095-1.508-2.003.025-3.699.531-5.034 1.501-1.371.97-2.377 2.082-2.993 3.311-.388.657-.675 1.515-.862 2.57-.177 1.067-.266 3.227-.266 6.417 0 3.134.089 5.277.267 6.368.093.576.211 1.058.349 1.432.151.367.324.763.515 1.176.612 1.224 1.618 2.328 2.985 3.273 1.34.98 3.037 1.5 5.048 1.549 2.023-.049 3.738-.569 5.086-1.545 1.345-.947 2.326-2.05 2.917-3.28.441-.667.737-1.532.9-2.602.153-1.093.231-3.237.231-6.371 0-3.185-.078-5.341-.232-6.411-.161-1.04-.457-1.894-.88-2.531-.61-1.263-1.592-2.379-2.936-3.349z"/></g><path d="m54.349 13.711-26.795 4.542c-.904.153-1.769-.461-1.922-1.364l-.043-.255c-.153-.904.461-1.769 1.365-1.922l26.795-4.542c.903-.153 1.768.461 1.922 1.365l.043.254c.153.904-.462 1.769-1.365 1.922" fill="#e2642c"/></g></svg>

<?xml version="1.0" encoding="UTF-8"?>
<svg width="58px" height="28px" viewBox="0 0 58 28" version="1.1" xmlns="http://www.w3.org/2000/svg" xmlns:xlink="http://www.w3.org/1999/xlink">
    <!-- Generator: Sketch 51.1 (57501) - http://www.bohemiancoding.com/sketch -->
    <title>Logo-roe-novo-2</title>
    <desc>Created with Sketch.</desc>
    <defs>
        <polygon id="path-1" points="0.06 0.297 57.255 0.297 57.255 27.515 0.06 27.515"></polygon>
    </defs>
    <g id="Page-1" stroke="none" stroke-width="1" fill="none" fill-rule="evenodd">
        <g id="Logo-roe-novo-2">
            <g id="Group-4">
                <mask id="mask-2" fill="white">
                    <use xlink:href="#path-1"></use>
                </mask>
                <g id="Clip-2"></g>
                <path d="M45.252,24.03 C44.495,24.03 43.881,23.417 43.881,22.659 L43.881,14.664 L43.865,14.664 L43.865,11.429 L43.881,11.429 L43.881,4.902 C43.881,4.144 44.495,3.531 45.252,3.531 L55.5,3.531 C56.256,3.531 56.87,2.918 56.87,2.16 L56.87,1.668 C56.87,0.911 56.256,0.297 55.5,0.297 L43.238,0.297 C41.679,0.297 40.415,1.56 40.415,3.12 L40.415,24.078 C40.415,25.838 41.842,27.265 43.602,27.265 L55.884,27.265 C56.641,27.265 57.255,26.65 57.255,25.893 L57.255,25.401 C57.255,24.643 56.641,24.03 55.884,24.03 L45.252,24.03" id="Fill-1" fill="#6A6A67" mask="url(#mask-2)"></path>
                <path d="M11.879,16.207 C11.418,15.569 11.599,14.654 12.291,14.278 C14.618,13.013 15.952,10.658 15.952,7.652 C15.952,4.797 13.617,0.547 7.185,0.547 L1.332,0.547 C0.596,0.547 0,1.144 0,1.879 L0,2.457 C0,3.195 0.6,3.793 1.337,3.79 L3.468,3.781 L7.378,3.781 C11.144,3.781 12.486,5.821 12.486,7.731 C12.486,9.708 11.701,12.065 7.959,12.065 L3.468,12.065 L3.468,12.057 L1.332,12.057 C0.596,12.057 0,12.653 0,13.389 L0,26.183 C0,26.918 0.596,27.515 1.332,27.515 L2.136,27.515 C2.872,27.515 3.468,26.918 3.468,26.183 L3.468,16.632 C3.468,15.896 4.065,15.3 4.8,15.3 L6.288,15.3 C6.716,15.3 7.118,15.506 7.369,15.852 L15.383,26.962 C15.633,27.309 16.035,27.515 16.463,27.515 L17.455,27.515 C18.542,27.515 19.171,26.282 18.534,25.401 L11.879,16.207" id="Fill-3" fill="#6A6A67" mask="url(#mask-2)"></path>
            </g>
            <path d="M33.285,19.78 C33.084,20.785 32.705,21.611 32.159,22.238 C31.755,22.817 31.19,23.31 30.495,23.682 C29.771,24.115 28.894,24.338 27.899,24.338 C26.915,24.338 26.055,24.115 25.344,23.674 C24.644,23.313 24.054,22.822 23.61,22.223 C23.076,21.611 22.709,20.783 22.532,19.777 C22.335,18.795 22.239,16.97 22.239,14.202 C22.239,11.434 22.335,9.598 22.533,8.584 C22.709,7.608 23.076,6.794 23.623,6.166 C24.053,5.584 24.64,5.081 25.355,4.685 C26.064,4.301 26.917,4.092 27.893,4.065 C28.892,4.092 29.763,4.3 30.494,4.684 C31.194,5.084 31.757,5.589 32.175,6.187 C32.705,6.793 33.083,7.605 33.284,8.583 C33.468,9.586 33.561,11.475 33.561,14.202 C33.561,16.968 33.47,18.792 33.285,19.78 Z M33.001,1.911 C31.653,0.935 29.939,0.428 27.906,0.403 C25.903,0.428 24.207,0.934 22.872,1.904 C21.501,2.874 20.495,3.986 19.879,5.215 C19.491,5.872 19.204,6.73 19.017,7.785 C18.84,8.852 18.751,11.012 18.751,14.202 C18.751,17.336 18.84,19.479 19.018,20.57 C19.111,21.146 19.229,21.628 19.367,22.002 C19.518,22.369 19.691,22.765 19.882,23.178 C20.494,24.402 21.5,25.506 22.867,26.451 C24.207,27.431 25.904,27.951 27.915,28 C29.938,27.951 31.653,27.431 33.001,26.455 C34.346,25.508 35.327,24.405 35.918,23.175 C36.359,22.508 36.655,21.643 36.818,20.573 C36.971,19.48 37.049,17.336 37.049,14.202 C37.049,11.017 36.971,8.861 36.817,7.791 C36.656,6.751 36.36,5.897 35.937,5.26 C35.327,3.997 34.345,2.881 33.001,1.911 Z" id="Fill-5" fill="#6A6A67"></path>
            <path d="M54.349,13.711 L27.554,18.253 C26.65,18.406 25.785,17.792 25.632,16.889 L25.589,16.634 C25.436,15.73 26.05,14.865 26.954,14.712 L53.749,10.17 C54.652,10.017 55.517,10.631 55.671,11.535 L55.714,11.789 C55.867,12.693 55.252,13.558 54.349,13.711" id="Fill-6" fill="#E2642C"></path>
        </g>
    </g>
</svg>
